**kern	**kern
*staff2	*staff1
*clefF4	*clefG2
*k[b-e-a-]	*k[b-e-a-]
*M3/4	*M3/4
*c:	*c:
=-	=-
4B-	4r
=150	=150
(4B-	2r
4c	.
4d-)	4e 4g
=151	=151
2d-	(4e 4g
.	4f 4a-
4d-	4g) 4b- 4ee
=152	=152
(4d-	(4g 4b- 4ee
4c	4a- 4cc 4ff
4B-)	4cc) 4ee 4gg
=153	=153
4A-	4cc 4ff 4aa-
4r	4r
4A-	4r
=154	=154
*	*^
(4A-	4r	4r
4B-	4r	4r
4B)	4dd	4f 4a-
=155	=155	=155
2B	(4dd	2f 2a-
.	4ee-	.
(4BB	4ff	4a- 4dd
*	*v	*v
=156	=156
4C	4ee- 4g 4cc
4FF	4dd 4f 4a-
4FF#)	4cc) 4e- 4a
=157	=157
4GG	4b 4d 4g
4r	4r
=	=
*-	*-
